packages/ffe-icons/icons/open/400/sm/noise_aware.svg

<svg xmlns="http://www.w3.org/2000/svg" height="20" viewBox="0 -960 960 960" width="20"><path d="M481.211-792Q466-792 455.5-802.289q-10.5-10.29-10.5-25.5Q445-843 455.289-853.5q10.29-10.5 25.5-10.5Q496-864 506.5-853.711q10.5 10.29 10.5 25.5Q517-813 506.711-802.5q-10.29 10.5-25.5 10.5Zm0 696Q466-96 455.5-106.289q-10.5-10.29-10.5-25.5Q445-147 455.289-157.5q10.29-10.5 25.5-10.5Q496-168 506.5-157.711q10.5 10.29 10.5 25.5Q517-117 506.711-106.5q-10.29 10.5-25.5 10.5Zm-282-568Q184-664 173.5-674.289q-10.5-10.29-10.5-25.5Q163-715 173.289-725.5q10.29-10.5 25.5-10.5Q214-736 224.5-725.711q10.5 10.29 10.5 25.5Q235-685 224.711-674.5q-10.29 10.5-25.5 10.5Zm563 440Q747-224 736.5-234.289q-10.5-10.29-10.5-25.5Q726-275 736.289-285.5q10.29-10.5 25.5-10.5Q777-296 787.5-285.711q10.5 10.29 10.5 25.5Q798-245 787.711-234.5q-10.29 10.5-25.5 10.5Zm-625-138Q122-362 111.5-372.289q-10.5-10.29-10.5-25.5Q101-413 111.289-424q10.29-11 25.5-11Q152-435 162.5-424q10.5 11 10.5 26.211 0 15.21-10.289 25.5Q152.421-362 137.211-362Zm687-164Q809-526 798.5-536.289q-10.5-10.29-10.5-25.5Q788-577 798.289-587.5q10.29-10.5 25.5-10.5Q839-598 849.5-587.711q10.5 10.29 10.5 25.5Q860-547 849.711-536.5q-10.29 10.5-25.5 10.5Zm-506 394Q303-132 292.5-142.289q-10.5-10.29-10.5-25.5Q282-183 292.289-193.5q10.29-10.5 25.5-10.5Q333-204 343.5-193.711q10.5 10.29 10.5 25.5Q354-153 343.711-142.5q-10.29 10.5-25.5 10.5Zm325-624Q628-756 617.5-766.289q-10.5-10.29-10.5-25.5Q607-807 617.289-817.5q10.29-10.5 25.5-10.5Q658-828 668.5-817.711q10.5 10.29 10.5 25.5Q679-777 668.711-766.5q-10.29 10.5-25.5 10.5Zm0 623Q628-133 617.5-143.289q-10.5-10.29-10.5-25.5Q607-184 617.289-194.5q10.29-10.5 25.5-10.5Q658-205 668.5-194.711q10.5 10.29 10.5 25.5Q679-154 668.711-143.5q-10.29 10.5-25.5 10.5Zm-325-623Q303-756 292.5-766.289q-10.5-10.29-10.5-25.5Q282-807 292.289-817.5q10.29-10.5 25.5-10.5Q333-828 343.5-817.711q10.5 10.29 10.5 25.5Q354-777 343.711-766.5q-10.29 10.5-25.5 10.5Zm506 394Q809-362 798.5-372.289q-10.5-10.29-10.5-25.5Q788-413 798.289-424q10.29-11 25.5-11Q839-435 849.5-424q10.5 11 10.5 26.211 0 15.21-10.289 25.5Q839.421-362 824.211-362Zm-688-164Q121-526 110.5-536.289q-10.5-10.29-10.5-25.5Q100-577 110.289-587.5q10.29-10.5 25.5-10.5Q151-598 161.5-587.711q10.5 10.29 10.5 25.5Q172-547 161.711-536.5q-10.29 10.5-25.5 10.5Zm626-138Q747-664 736.5-674.289q-10.5-10.29-10.5-25.5Q726-715 736.289-725.5q10.29-10.5 25.5-10.5Q777-736 787.5-725.711q10.5 10.29 10.5 25.5Q798-685 787.711-674.5q-10.29 10.5-25.5 10.5Zm-563 440Q184-224 173.5-234.289q-10.5-10.29-10.5-25.5Q163-275 173.289-285.5q10.29-10.5 25.5-10.5Q214-296 224.5-285.711q10.5 10.29 10.5 25.5Q235-245 224.711-234.5q-10.29 10.5-25.5 10.5ZM516-240q-36 0-63.5-23T412-320q-6-16-13-32t-20-27l-38-34q-27-24-40-57.5T288-540q0-76 54.25-128T474-720q47 0 88.5 21t61.5 63q11 23 3 45t-28.371 22q-10.629 0-19.733-5.688Q569.792-580.375 565-590q-13-26-38.5-42T472-648q-46 0-79 31.32T360-540q0 24 11.5 45t28.5 38l30 28q19 18 30.826 40.971Q472.652-365.059 481-340q4 12 13.394 20T516-312q13 0 22.5-8.5T555-340q5-8 12.448-12 7.449-4 16.552-4 21.043 0 32.021 17.5Q627-321 617-304q-15 29-42.233 46.5Q547.533-240 516-240Zm24-162q25 0 42.5-17.5T600-462q0-25-17.5-42.5T540-522q-25 0-42.5 17.5T480-462q0 25 17.5 42.5T540-402Z"/></svg>

<svg xmlns="http://www.w3.org/2000/svg" height="20" viewBox="0 -960 960 960" width="20"><path d="M481.21-792q-15.21 0-25.71-10.29t-10.5-25.5q0-15.21 10.29-25.71t25.5-10.5q15.21 0 25.71 10.29t10.5 25.5q0 15.21-10.29 25.71t-25.5 10.5Zm0 696Q466-96 455.5-106.29t-10.5-25.5q0-15.21 10.29-25.71t25.5-10.5q15.21 0 25.71 10.29t10.5 25.5q0 15.21-10.29 25.71T481.21-96Zm-282-568q-15.21 0-25.71-10.29t-10.5-25.5q0-15.21 10.29-25.71t25.5-10.5q15.21 0 25.71 10.29t10.5 25.5q0 15.21-10.29 25.71t-25.5 10.5Zm563 440q-15.21 0-25.71-10.29t-10.5-25.5q0-15.21 10.29-25.71t25.5-10.5q15.21 0 25.71 10.29t10.5 25.5q0 15.21-10.29 25.71t-25.5 10.5Zm-625-138q-15.21 0-25.71-10.29t-10.5-25.5Q101-413 111.29-424t25.5-11q15.21 0 25.71 11t10.5 26.21q0 15.21-10.29 25.5T137.21-362Zm687-164q-15.21 0-25.71-10.29t-10.5-25.5q0-15.21 10.29-25.71t25.5-10.5q15.21 0 25.71 10.29t10.5 25.5q0 15.21-10.29 25.71t-25.5 10.5Zm-506 394q-15.21 0-25.71-10.29t-10.5-25.5q0-15.21 10.29-25.71t25.5-10.5q15.21 0 25.71 10.29t10.5 25.5q0 15.21-10.29 25.71t-25.5 10.5Zm325-624q-15.21 0-25.71-10.29t-10.5-25.5q0-15.21 10.29-25.71t25.5-10.5q15.21 0 25.71 10.29t10.5 25.5q0 15.21-10.29 25.71t-25.5 10.5Zm0 623q-15.21 0-25.71-10.29t-10.5-25.5q0-15.21 10.29-25.71t25.5-10.5q15.21 0 25.71 10.29t10.5 25.5q0 15.21-10.29 25.71t-25.5 10.5Zm-325-623q-15.21 0-25.71-10.29t-10.5-25.5q0-15.21 10.29-25.71t25.5-10.5q15.21 0 25.71 10.29t10.5 25.5q0 15.21-10.29 25.71t-25.5 10.5Zm506 394q-15.21 0-25.71-10.29t-10.5-25.5Q788-413 798.29-424t25.5-11q15.21 0 25.71 11t10.5 26.21q0 15.21-10.29 25.5T824.21-362Zm-688-164q-15.21 0-25.71-10.29t-10.5-25.5q0-15.21 10.29-25.71t25.5-10.5q15.21 0 25.71 10.29t10.5 25.5q0 15.21-10.29 25.71t-25.5 10.5Zm626-138q-15.21 0-25.71-10.29t-10.5-25.5q0-15.21 10.29-25.71t25.5-10.5q15.21 0 25.71 10.29t10.5 25.5q0 15.21-10.29 25.71t-25.5 10.5Zm-563 440q-15.21 0-25.71-10.29t-10.5-25.5q0-15.21 10.29-25.71t25.5-10.5q15.21 0 25.71 10.29t10.5 25.5q0 15.21-10.29 25.71t-25.5 10.5ZM516-240q-36 0-63.5-23T412-320q-6-16-13-32t-20-27l-38-34q-27-24-40-57.5T288-540q0-76 54.25-128T474-720q47 0 88.5 21t61.5 63q11 23 3 45t-28.37 22q-10.63 0-19.73-5.69-9.11-5.69-13.9-15.31-13-26-38.5-42T472-648q-46 0-79 31.32T360-540q0 24 11.5 45t28.5 38l30 28q19 18 30.83 40.97Q472.65-365.06 481-340q4 12 13.39 20 9.4 8 21.61 8 13 0 22.5-8.5T555-340q5-8 12.45-12 7.45-4 16.55-4 21.04 0 32.02 17.5Q627-321 617-304q-15 29-42.23 46.5Q547.53-240 516-240Zm24-162q25 0 42.5-17.5T600-462q0-25-17.5-42.5T540-522q-25 0-42.5 17.5T480-462q0 25 17.5 42.5T540-402Z"/></svg>
